X:1
T:Title
%%score { ( 1 3 ) | ( 2 4 ) }
L:1/8
M:6/8
K:F
V:1 treble nm="Grand Piano"
V:3 treble 
V:2 bass 
V:4 bass 
V:1
 z3 z2[Q:1/4=77] F/G/ | A_A=A [EB][EG]A | F3- F2 A/B/ | c=Bc dcA | [EG]3- [EG]2 [EG]/[FA]/ | %5
 [GB][^FA][GB] [EG]2 A/B/ | c=Bc [Fd]2 [Fd]/[Fd]/ | [Fc][FA][Fc] [Ec][EB][EG] |[M:5/8] F-F- F3 | %9
[M:1/8] A |[M:3/4] A3 .A3 | BB B [CEB]2 [CB] | [CB]3 [CB]2 [Bd] | %13
 [Bd][CAc] [C_A=B] [C=Ac]2 [CFA]/[CG_B]/ | [FAc][D_A=B] [C=Ac] [CFA]2 [FA]/[FAc]/ | %15
[M:7/8] d^cd f3 d |[M:3/4] [FAc]>[CGB] [CFA][CAc] [CGB][B,EG] |[M:5/8] F-F- F3 |] %18
V:2
 z3 z2 [F,A,]/[F,B,F]/ | [F,CF][F,=B,F][F,CF] [C,C][C,C][C,_B,C] | %2
 [F,A,C]3- [F,A,C]2 [F,F]/[F,G,F]/ | [F,A,F][F,_A,F][F,=A,F] [F,B,F][F,A,F][F,CF] | %4
 [C,C]3- [C,C]2 [C,C]/[C,C]/ | [C,C][C,C][C,C] [C,C]2 [F,F]/[F,G,F]/ | %6
 [F,A,F][F,_A,F][F,=A,F] [B,,B,]2 [B,,B,]/[B,,B,]/ | [C,A,][C,C][C,A,] [C,G,][C,C][C,B,] | %8
[M:5/8] [F,A,]-[F,A,]- [F,A,]3 |[M:1/8] [F,CF] |[M:3/4] F2 z C z2[K:treble] | %11
 [G,CE][G,CG] [G,CF][K:bass] C,2 C, | z z/[K:treble] F/ .E2[K:bass] G[C,C] | %13
 [F,C]F, F, F,2 F,/F,/ | F,F, F, F,2 F,/F,/ |[M:7/8][K:treble] [B,FB][B,EB][B,FB] [B,DB]3 [B,FB] | %16
[M:3/4][K:bass] F,>F, F,C, C,C, |[M:5/8] z CB, A,2 |] %18
V:3
 x6 | x6 | x6 | x6 | x6 | x6 | x6 | x6 |[M:5/8] x5 |[M:1/8] x |[M:3/4] z z/ E/ .D2 DA | x6 | %12
 G2 z E z2 | x6 | x6 |[M:7/8] x7 |[M:3/4] x6 |[M:5/8] A,ED C2 |] %18
V:4
 x6 | x6 | x6 | x6 | x6 | x6 | x6 | x6 |[M:5/8] x5 |[M:1/8] x | %10
[M:3/4] [F,C]3 F,2[K:treble] [F,CF] | x3[K:bass] x3 | C,3[K:treble][K:bass] .C,3 | x6 | x6 | %15
[M:7/8][K:treble] x7 |[M:3/4][K:bass] x6 |[M:5/8] F,-F,- F,3 |] %18

